weblate_web/static/img/icon-context.svg

<?xml version="1.0" encoding="UTF-8" standalone="no"?>
<svg
   xmlns:dc="http://purl.org/dc/elements/1.1/"
   xmlns:cc="http://creativecommons.org/ns#"
   xmlns:rdf="http://www.w3.org/1999/02/22-rdf-syntax-ns#"
   xmlns:svg="http://www.w3.org/2000/svg"
   xmlns="http://www.w3.org/2000/svg"
   xmlns:sodipodi="http://sodipodi.sourceforge.net/DTD/sodipodi-0.dtd"
   xmlns:inkscape="http://www.inkscape.org/namespaces/inkscape"
   version="1.1"
   width="41"
   height="41"
   viewBox="-1 -1 43 43"
   id="svg4"
   sodipodi:docname="icon-context.svg"
   inkscape:version="0.92.4 (5da689c313, 2019-01-14)">
  <metadata
     id="metadata10">
    <rdf:RDF>
      <cc:Work
         rdf:about="">
        <dc:format>image/svg+xml</dc:format>
        <dc:type
           rdf:resource="http://purl.org/dc/dcmitype/StillImage" />
        <dc:title></dc:title>
      </cc:Work>
    </rdf:RDF>
  </metadata>
  <defs
     id="defs8" />
  <sodipodi:namedview
     pagecolor="#ffffff"
     bordercolor="#666666"
     borderopacity="1"
     objecttolerance="10"
     gridtolerance="10"
     guidetolerance="10"
     inkscape:pageopacity="0"
     inkscape:pageshadow="2"
     inkscape:window-width="1920"
     inkscape:window-height="1027"
     id="namedview6"
     showgrid="false"
     fit-margin-top="0"
     fit-margin-left="0"
     fit-margin-right="0"
     fit-margin-bottom="0"
     inkscape:zoom="9.8333333"
     inkscape:cx="10"
     inkscape:cy="10"
     inkscape:window-x="-8"
     inkscape:window-y="-8"
     inkscape:window-maximized="1"
     inkscape:current-layer="svg4" />
  <path
     d="M 7.175,10.25 A 3.075,3.075 0 0 0 10.25,7.175 3.075,3.075 0 0 0 7.175,4.1 3.075,3.075 0 0 0 4.1,7.175 3.075,3.075 0 0 0 7.175,10.25 m 32.6155,9.389 C 40.5285,20.377 41,21.402 41,22.55 c 0,1.1275 -0.451,2.1525 -1.2095,2.8905 l -14.35,14.35 C 24.7025,40.5285 23.6775,41 22.55,41 21.4225,41 20.3975,40.5285 19.639,39.7905 L 1.2095,21.3405 C 0.451,20.6025 0,19.5775 0,18.45 V 4.1 C 0,1.8245 1.8245,0 4.1,0 h 14.35 c 1.1275,0 2.1525,0.451 2.8905,1.189 l 18.45,18.45 M 22.55,36.9 36.9,22.55 19.475,5.125 5.125,19.475 22.55,36.9 M 16.5845,14.1655 19.475,11.275 30.75,22.55 27.8595,25.4405 16.5845,14.1655 m -5.125,5.125 2.8905,-2.8905 8.2,8.2 -2.8905,2.8905 z"
     id="path2"
     inkscape:connector-curvature="0"
     style="stroke-width:1;fill:none;stroke:#1fa385;stroke-opacity:1" />
</svg>

<svg viewBox="-1 -1 43 43"><path fill="none" stroke="#1fa385" d="M7.175 10.25a3.075 3.075 0 003.075-3.075A3.075 3.075 0 007.175 4.1 3.075 3.075 0 004.1 7.175a3.075 3.075 0 003.075 3.075m32.615 9.389A4.104 4.104 0 0141 22.55a4.008 4.008 0 01-1.21 2.89L25.44 39.79A4.092 4.092 0 0122.55 41c-1.128 0-2.152-.471-2.911-1.21L1.209 21.34A4.008 4.008 0 010 18.45V4.1C0 1.825 1.825 0 4.1 0h14.35c1.127 0 2.152.451 2.89 1.189l18.45 18.45M22.55 36.9L36.9 22.55 19.475 5.125l-14.35 14.35L22.55 36.9m-5.966-22.734l2.891-2.891L30.75 22.55l-2.89 2.89-11.276-11.275m-5.125 5.126L14.35 16.4l8.2 8.2-2.89 2.89z"/></svg>
